X: 1
T: Polska efter G Lungstr\"om
N: Learned from David Bastviken, April 1997, in Boston.
Z: John Chambers <jc@trillian.mit.edu>
B: Svenska L\aatar (N\"arke) p.52 #119
R: slangpolska
M: 3/4
L: 1/16
K: D
|: "D"A2d2 FDFA dcdf | "A7"e2c2 Acec Aceg | "D"f2ag "A7"e2gf "D"d2fa | "A7"agec d2A2 "D"FDFA |
|  "D"A2d2 FDFA dcdf | "A7"e2c2 Acec Aceg | "D"f2ag "A7"e2gf "D"d2fa | "A7"agec c2d2 "D"d4 :|
|: "D"a2a2 fdfa fdfa | "G"g2b2 "Bm"b2b2 "Em"b4 | "A7"g2g2 eceg eceg | "D"f2a2 a2a2 a4 |
|  "D"A2d2 FDFA dcdf | "A7"e2c2 Acec Aceg | "D"f2ag "A7"e2gf "D"d2fa | "A7"agec c2d2 "D"d4 :|

%%sep 1 1 500

